X:107
T:Girl from Dungannon
M:3/4
L:1/8
S:Amix
R:Trad Irish
K:AMix
{g}cB ||{G}A4 {GAG}A2 | {GdG}B4 {g}A{d}B | {g}c2 {g}f3 a | {e}f2 {g}e3 d
| {acd}c4 {g}B{d}c | {d}A4 {g}B{d}c | {g}B2 {G}A3 a |
{e}f4 {g}e2 | {g}A4 {GAG}A2 | {GdG}B4 {g}A{d}B | {g}c2 {g}f3 a | {e}f2
{g}e3 d | {acd}c4 {g}B{d}c | {d}A4 {g}B{d}c | {g}B2 {G}A3 {d}A | {GAG}A4
|]
